icons/landroid.svg

<svg xmlns="http://www.w3.org/2000/svg" viewBox="0 0 48 48"><defs><style>.a{fill:none;stroke:#fff;stroke-linecap:round;stroke-linejoin:round;}.b{fill:#fff;}</style></defs><path class="a" d="M13.2,18.4H34.7V35.5l-1.8,1.8H15l-1.8-1.8Z"/><path class="a" d="M13.2,16.4c0-12.8,21.5-12.7,21.5,0Z"/><line class="a" x1="33.3" y1="16.4" x2="33.3" y2="18.4"/><line class="a" x1="15.1" y1="18.4" x2="15.1" y2="16.4"/><circle class="b" cx="19" cy="12.4" r="0.8"/><circle class="b" cx="29" cy="12.4" r="0.8"/><path class="a" d="M35,43.5H29.4V37.3"/><path class="a" d="M18.5,37.3v6.2H13"/><path class="a" d="M29,7.8l1.5-3.3"/><path class="a" d="M17.4,4.5l1.5,3.3"/><path class="a" d="M15.3,20.5V30.8h3.4v1.8h1.7V35h7.2V32.6h1.7V30.8h3.4V20.4Z"/><path class="a" d="M17.6,22.7v2"/><path class="a" d="M19.5,22.7v2"/><path class="a" d="M21.3,22.7v2"/><path class="a" d="M23.1,22.7v2"/><path class="a" d="M24.9,22.7v2"/><path class="a" d="M26.7,22.7v2"/><path class="a" d="M28.6,22.7v2"/><path class="a" d="M30.4,22.7v2"/><path class="a" d="M10.4,30.8h0a.79.79,0,0,1-.8-.8V20a.79.79,0,0,1,.8-.8h0a.79.79,0,0,1,.8.8V30C11.3,30.4,10.9,30.8,10.4,30.8Z"/><path class="a" d="M37.6,30.8h0a.79.79,0,0,1-.8-.8V20a.79.79,0,0,1,.8-.8h0a.79.79,0,0,1,.8.8V30A.86.86,0,0,1,37.6,30.8Z"/><line class="a" x1="18.5" y1="43.5" x2="29.4" y2="43.5"/></svg>

<?xml version="1.0" encoding="utf-8"?>
<!-- Generator: Adobe Illustrator 25.1.0, SVG Export Plug-In . SVG Version: 6.00 Build 0)  -->
<svg version="1.1" id="Layer_1" xmlns="http://www.w3.org/2000/svg" xmlns:xlink="http://www.w3.org/1999/xlink" x="0px" y="0px"
	 viewBox="0 0 48 48" style="enable-background:new 0 0 48 48;" xml:space="preserve">
<style type="text/css">
	.st0{fill:none;stroke:#FFFFFF;stroke-linecap:round;stroke-linejoin:round;}
	.st1{fill:none;stroke:#FFFFFF;stroke-linecap:round;stroke-linejoin:round;stroke-miterlimit:8;}
	.st2{fill:#FFFFFF;}
</style>
<g>
	<path class="st0" d="M13.2,18.4h21.5v17.1l-1.8,1.8H15l-1.8-1.8L13.2,18.4z"/>
	<path class="st0" d="M13.2,16.4c0-12.8,21.5-12.7,21.5,0H13.2z"/>
	<line class="st1" x1="33.3" y1="16.4" x2="33.3" y2="18.4"/>
	<line class="st1" x1="15.1" y1="18.4" x2="15.1" y2="16.4"/>
	<circle class="st2" cx="19" cy="12.4" r="0.8"/>
	<circle class="st2" cx="29" cy="12.4" r="0.8"/>
	<path class="st0" d="M35,43.5h-5.6v-6.2"/>
	<path class="st0" d="M18.5,37.3v6.2H13"/>
	<path class="st0" d="M29,7.8l1.5-3.3"/>
	<path class="st0" d="M17.4,4.5l1.5,3.3"/>
	<path class="st0" d="M15.3,20.5v10.3h3.4v1.8h1.7l0,2.4h7.2l0-2.4h1.7v-1.8h3.4V20.4L15.3,20.5z"/>
	<path class="st0" d="M17.6,22.7v2"/>
	<path class="st0" d="M19.5,22.7v2"/>
	<path class="st0" d="M21.3,22.7v2"/>
	<path class="st0" d="M23.1,22.7v2"/>
	<path class="st0" d="M24.9,22.7v2"/>
	<path class="st0" d="M26.7,22.7v2"/>
	<path class="st0" d="M28.6,22.7v2"/>
	<path class="st0" d="M30.4,22.7v2"/>
	<path class="st0" d="M10.4,30.8L10.4,30.8c-0.5,0-0.8-0.4-0.8-0.8V20c0-0.5,0.4-0.8,0.8-0.8h0c0.5,0,0.8,0.4,0.8,0.8v10
		C11.3,30.4,10.9,30.8,10.4,30.8z"/>
	<path class="st0" d="M37.6,30.8L37.6,30.8c-0.5,0-0.8-0.4-0.8-0.8V20c0-0.5,0.4-0.8,0.8-0.8l0,0c0.5,0,0.8,0.4,0.8,0.8v10
		C38.4,30.4,38,30.8,37.6,30.8z"/>
	<line class="st0" x1="18.5" y1="43.5" x2="29.4" y2="43.5"/>
</g>
</svg>
